X:1
T:Title
%%score 1 { ( 2 4 ) | 3 }
L:1/8
Q:1/4=95
M:4/4
K:Bb
V:1 treble nm="Grand Piano, Soprano"
V:2 bass nm="Choir Pad, Bass"
V:4 bass 
V:3 bass 
V:1
 [DB]2 [Fd]>[Ec] [DB]2 [FB]>[FB] | [FA][EG][GB][EG] [DF]2 [B,D]2 | [DF]2 [FB]>[Fc] [Fd]2 [Fd]2 | %3
w: By~William~Howard~Doane * * * * *|||
 [Fe]2 [Fd]2 [Fc]4 | [DB]2 [Fd]>[Ec] [DB]2 [FB]>[FB] | [FA][EG][GB][EG] [DF]2 [FB]2 | %6
w: |||
 [Fd]2 [Gd][Gd] [Ge]2 [Gc]2 | [FB]2 [EA]2 [DB]4 | [Fc]2 [Fc]>[Fc] [Fc]2 [F=B][Fc] | %9
w: |||
 [Fd][Fc][FA]F [FA]2 [Fc]2 | [GB]2 [GB]>[GB] [GB]2 [^FA][GB] | [Ac][GB][FA][=EG] [GB]2 [FA]2 | %12
w: |||
 [Ac]2 [Ac]>[Ac] [Ac]2 [_A=B][=Ac] | [Bd][df][c=e][Bd] [df]2 [Bd]2 | [Fc]2 [Fc]>[Fc] [Fc]2 [FA]F | %15
w: |||
 [FA]2 [=EG]2 F4 | [DB]2 [Fd]>[Ec] [DB]2 [FB]>[FB] | [FA][EG][GB][EG] [DF]2 [DB]2 | %18
w: |||
 [Fd]2 [Fd]>[Fd] [Ge]2 [Fd]2 | [Fc]2 [=Ec]2 [Fc]4 | [Fe]3 [Fd] [Fc][Fc][Fc][Fc] | %21
w: |||
 [Fd]3 [Ec] [DB]2 [FA]2 | [EG]2 [FB]>[FB] [Ee]2 [Fd][Gc] | [FB]2 [EA]2 [DB]4- | [DB]4 z4 |] %25
w: ||||
V:2
 B,2 B,>B, B,2 B,>B, | B,B,B,B, B,2 F,2 | B,2 B,>A, B,2 B,2 | C2 B,2 A,4 | B,2 B,>B, B,2 B,>B, | %5
 B,B,B,B, B,2 D2 | B,2 =B,B,[K:treble] C2 E2 | D2 C2 B,4 | A,2 A,>A, A,2 _A,=A, | %9
 B,A,[K:treble]CA, C2 A,2 | C2 C>C C2 CC | CCCC C2 C2 | F2 F>F F2 FC | B,B,B,B, B,2 B,2 | %14
 A,2 A,>A, A,2 CA, | z4 A,4 | B,2 B,>B, B,2 B,>B, | B,B,B,B, B,2 F,2 | B,2 B,>B, B,2 B,2 | %19
 A,2 G,2 A,4 | C3 B, A,A,A,A, | B,3 A, B,2 B,2 | B,2 B,>B, B,2 B,[K:treble]E | D2 C2 B,4- | %24
 B,4 z4 |] %25
V:3
 B,,2 B,,>B,, B,,2 D,>D, | E,E,E,E, B,,2 B,,2 | B,,2 D,>F, z4 | F,2 F,2 F,4 | %4
 B,,2 B,,>B,, B,,2 D,>D, | E,E,E,E, B,,2 B,,2 | B,,2 G,G, C,2 C,2 | F,2 F,2 B,,4 | %8
 F,2 F,>F, F,2 F,F, | F,F,F,F, F,2 F,2 | C,2 C,>C, C,2 C,C, | C,C,C,C, F,2 F,2 | %12
 F,2 F,>F, F,2 F,F, | B,,B,,B,,B,, B,,2 B,,2 | C,2 C,>C, C,2 C,C, | C,2 C,2 F,4 | %16
 B,,2 B,,>B,, B,,2 D,>D, | E,E,E,E, B,,2 B,,2 | B,,2 B,,>B,, B,,2 B,,2 | C,2 C,2 F,4 | %20
 F,3 F, F,F,F,F, | z2 z F, B,,2 D,2 | E,2 D,>D, G,2 F,E, | F,2 F,2 B,,4- | B,,4 z4 |] %25
V:4
 x8 | x8 | x8 | x8 | x8 | x8 | x4[K:treble] x4 | x8 | x8 | x2[K:treble] x6 | x8 | x8 | x8 | x8 | %14
 x8 | C2 B,2 z E,D,C, | x8 | x8 | x8 | x8 | x8 | x8 | x7[K:treble] x | x8 | x8 |] %25

